X: 1
T: Four Courts, The
M: 4/4
L: 1/8
R: reel
K: Dmaj
AD D2  ADBD | AD D2 G2 FG | AD D2 BG G2 | Bd=cA G2 FG :|
 E2 =cE dE=cE | E2 =cA G2 FG | E2 =cE dE=cE | Bd=cA G2 FG |
 E2 =cE dE=cE | E2 =cA G2 FG | Ad d2 dcAc | dcAF G2 FG |
 A3 d B3 d | ABAF G2 FG | A3 d B3 A | GBdB GBdB |
 A3 d B3 d | ABAF G2 FG | Ad d2 dcAc | dcAF G2 FG |
